X: 1747
T: NBO Hornpipe
C:Vreni Murphy, Townsville, Qld
B: australian traditional tunes wiki
M:4/4
L:1/8
R: Hornpipe
Q: 1/4=100
K:G
V:1 
(3DEF|"G"G>BA>F G>BA>F|G>e"C"d>^c "D"d4|"C"c>de>c "G"B>cd>B|"A"(3ABA (3GFE "D"D4|
"Em"E>G"D/F#"F>A "G"G>B"D"d>g|"D/F#"f>ed>c "G"B3A|"Em"(3GFE "D/F#"(3DEF "G"G>B"D"A>F|"G"G2G2G2:|
|:(3def|"G"g>ba>f g>dB>d|"C"e>dc>B "D"A3B|"C"(3cdc (3ABc "G"(3BAB G>G|"A"A>d"A/C#"^c>e "D"d4|
"Am"e>cA>e "G"d>BG>B|"C"c>BA>G "D"F2(3DEF|"G"G>Bd>g "D"f>de>f|"G"g2g2g2:|
% abcbook-tune_id 6342d53a3ee0c4e32692003f


% abcbook-boost 0
% abcbook-tablature 
% abcbook-transpose 
% abcbook-lastupdated 1665324381549
% abcbook-soundfonts 
% abcbook-repeats 1
% NFF Book 2019

